X: 20918
T: Jota Da Maia
R: waltz
M: 3/4
K: Gmajor
z2 dc Bc|dc Bc dB|G2 dc Bc|dc Bc BG|A2 cB AB|cB AB cA|
F2 cB AB|cB AG FA|G2 dc ~B2|Bc de dB|G2 dc ~B2|Bc dc BG|
A2 cB ~A2|AB cd cA|F2 cB AB|cB AG FA|G2 BA GB|dB gd Bd|
gd GB GB|dB gd Bd|cA FG AB|cA fc Ac|fc Ac fc|Ac ad cA|
G2 BA GB|dB gd Bd|gd GB GB|dB gd Bd|cA FG AB|cd gf ed|
fe dc ed|cB dc BA|G6-|G6-|Gz cB A2|B2 c2 e2|
d3 c B2-|B6-|Bz dc B2|c2 d2 f2|e3 d c2-|c2 e2 g2|
f3 e d2-|d2 c2 e2|d3 c B2-|B6-|Bz dc B2|c2 d2 f2|
e3 d c2-|c2 e2 g2|f3 e d2-|d2 e2 d2|d6||

